X: 18113
T: Humours Of Bandon, The
R: jig
M: 6/8
K: Gmajor
|:E2 ^D|D3 GFG|A2 G F2 A|B2 G GFG|A2 d f2 e|
d2 e c2 A|B2 G F2 A|B2 B cAF|1 G2 F:|2 G3||
|:ABc|d2 g- gfg|a2 g f2 a|g2 f d2 e|=f2 d c3|
d2 c- cBd|c2 B G3|B2 G F2 A|G2 F E2 ^D|
D3 GFG|A2 G F3|B2 G G2 G|A2 d f2 e|
d3 cBA|B2 G c2 A|B2 G c2 F|G3:|

